X:026
T:Lass of Richmond Hill
M:4/4
L:1/8
K:G
D2 | D2 G2 G2 G2 | AGFG A2 c2 | B2 G2 E2 A2 | G4 F2 D2 | 
D2 G2 G2 G2 | AGFG A2 G2 | FE D2 E2 ^C2 | D4 -D2 || 
G2 | FE D2 D2 G2 | FE D2 D2 G2 | FE D2 c2 B2 | B4 A2 G2 | 
FE D2 D2 G2 | FE D2 d3 c | B2 G2 A2 F2 | G4 G2 || 
D2 | D2 G2 G2 B2 | B6 G2 | F2 A2 A2 c2 | c6 A2 | B2 A2 G2 F2 | 
G2 E2 D2 c2 | B2 GB A2 FA | G4 G2 || 

